X: 13040
T: Finbarr Dwyer's Favourite
R: jig
M: 6/8
K: Dmixolydian
|:AG|FGA cAA|BGG cAG|FGA cAG|Ad^c dAG|
FGA cBc|dcd dfe|d^cA GEA|DDD D:|
|:FG|Add d^cd|fag {e}fee|d^cA GEG|AdB cAG|
Add d^cd|fag {e}fee|d^cA GEA|DDD D:|
|:dd|ded ^cAA|fAf gfe|ded ^cAG|AdB cAG|
ded ^cAA|fAf gfe|d^cA GEA|DDD D:|

